!!!COM: Zenaro, Giulio
!!!CDT: <1588-1590
!!!OTL: Bella non è costei
!!!PTL: Il primo libro de madrigali a tre voci
!!!PPP: Venice
!!!PPR: Vincenzi & Amadino
!!!PDT: 1589
!!!PUB-format:
!!!rime: 267
!!!AGN: Madrigal
!!!SCT: Trm0267a
!!!SCA: Trm0267a
!!!original-voices: 3
!!!extant-voices: 3
!!!complete: Y
!!!final: G
**kern	**text	**kern	**text	**kern	**text
*part3	*part3	*part2	*part2	*part1	*part1
*staff3	*staff3	*staff2	*staff2	*staff1	*staff1
*Ivox	*	*Ivox	*	*Ivox	*
*I"Basso	*	*I"Tenore	*	*I"Canto	*
*I'B	*	*I'T	*	*I'C	*
*oclefC3	*	*oclefC2	*	*oclefG2	*
*clefGv2	*	*clefG2	*	*clefG2	*
*k[]	*	*k[]	*	*k[]	*
*omet(C)	*	*omet(C)	*	*omet(C)	*
*M4/2	*	*M4/2	*	*M4/2	*
=1	=1	=1	=1	=1	=1
1r	.	1r	.	4dd	Bel-
.	.	.	.	8cc	-la
.	.	.	.	8b	non
.	.	.	.	4cc	&egrave;
.	.	.	.	4a	co-
2G	Ma	4r	.	2b	-ste-
.	.	4d	Ma	.	.
4d	la	4f	la	2a	-i,
4c#X	bel-	4e	bel-	.	.
=2	=2	=2	=2	=2	=2
4d	-ta-	4f#X	-ta-	1r	.
4B	-de i-	4g	-de i-	.	.
2A	-stes-	2f#X	-stes-	.	.
2G	-sa,	1g	-sa,	4r	.
.	.	.	.	2dd	<Bel-
4B	Bel-	.	.	.	.
8A	-la	.	.	8cc	-la
8G	non	.	.	8b	non
=3	=3	=3	=3	=3	=3
4A	&egrave;	2r	.	4cc	&egrave;
4d	co-	.	.	4a	co-
2G	-ste-	4g	Bel-	4b	-ste-
.	.	8f	-la	8aL	.
.	.	8e	non	8gJ	.
2d	-i,	4f	&egrave;	2a	.
.	.	4f	co-	.	.
4g	Bel-	4e	-ste-	2g	-i,>
8f	-la	8dL	.	.	.
8e	non	8cJ	.	.	.
=4	=4	=4	=4	=4	=4
4f	&egrave;	2d	.	2r	.
4f	co-	.	.	.	.
4e	-ste-	2c	-i,	4gg	Bel-
8dL	.	.	.	8ff	-la
8cJ	.	.	.	8ee	non
2d	.	2r	.	4ff	&egrave;
.	.	.	.	4ff	co-
2c	-i	4cc	Bel-	4ee	-ste-
.	.	8b	-la	8ddL	.
.	.	8a	non	8ccJ	.
=5	=5	=5	=5	=5	=5
1G	Ma	4b	&egrave;	2dd	.
.	.	4g	co-	.	.
.	.	2b	-ste-	2dd	-i
4.A	la	1cc	-i	2r	.
8B	bel-	.	.	.	.
4c	-ta-	.	.	[2g	Ma
4d	-de i-	.	.	.	.
=6	=6	=6	=6	=6	=6
2.e	-stes-	2c	Ma,	4g]	.
.	.	.	.	8a	la
.	.	.	.	8b	bel-
.	.	4r	.	4cc	-ta-
4g	-sa,	2e	Ma	4b	-de i-
4r	.	.	.	4cc#X	-stes-
4G	Ma	8d	la	2dd	.
.	.	8e	bel-	.	.
4A	la	4f	-ta-	.	.
4A	bel-	4e	-de i-	4cc#X	.
=7	=7	=7	=7	=7	=7
4d	-ta-	4f#X	-stes-	4.dd	.
4B	-de i-	2g	.	.	.
.	.	.	.	16ccniL	.
.	.	.	.	16bJ	.
2d	-stes-	.	.	2a	.
.	.	4f#X	.	.	.
1G	-sa	1g	-sa	1b	-sa
=8	=8	=8	=8	=8	=8
*col	*	*col	*	*col	*
3.cV	Per-	3.eV	Per-	3.ggV	Per-
6c	-ch&eacute;	6e	-ch&eacute;	6gg	-ch&eacute;
3dZ	fa	3dZ	fa	3ffZ	fa
*Xcol	*	*Xcol	*	*Xcol	*
2c#X	bel-	2a	bel-	2ee	bel-
2d	-lo	2f	-lo	2dd	-lo
=9	=9	=9	=9	=9	=9
1r	.	8e	ci&ograve;	8g	ci&ograve;
.	.	8f#X	ch'a	8a	ch'a
.	.	8g	lei	8b	lei
.	.	8e	s'ap-	8cc	s'ap-
.	.	2f#X	-pres-	2a	-pres-
2r	.	2g	-sa:	2g	-sa:
2G	E	2b	E	4r	.
.	.	.	.	4dd	E
=10	=10	=10	=10	=10	=10
2G	quan-	2b	quan-	2dd	quan-
2.G	-to el-	2.b	-to el-	2.dd	-to el-
4G	-la	2g	-la	4b	-la
2A	com-	.	.	2cc	com-
.	.	4f#X	com-	.	.
=11	=11	=11	=11	=11	=11
8GL	-par-	4.g	-par-	8bL	-par-
8A	.	.	.	8cc	.
8B	.	.	.	8dd	.
8cJ	.	8e	.	16cc	.
.	.	.	.	16bJ	.
2d	.	2f#X	.	4a	.
.	.	.	.	2dd	-te i
4B	-te i	4g	.	.	.
2c	dol-	4.e	-te i	2g	dol-
.	.	8fniL	dol-	.	.
4G	-ci	8g	.	4b	-ci
.	.	8dJ	.	.	.
=12	=12	=12	=12	=12	=12
1A	sguar-	4a	.	4cc#X	sguar-
.	.	4f	-ci	2dd	.
.	.	2e	sguar-	.	.
.	.	.	.	4cc#X	.
2d	-di	4.f#X	.	2dd	-di
.	.	16eL	.	.	.
.	.	16f#iJ	.	.	.
4r	.	2g	-di	4r	.
4e	E	.	.	4g	E
=13	=13	=13	=13	=13	=13
4d	le	1r	.	4f#X	le
4B	pa-	.	.	4g	pa-
4A	-ro-	.	.	4f#X	-ro-
4G	-le,	.	.	4g	-le,
4r	.	4r	.	4r	.
4G	<E	4b-	E	4dd	<E
4A	le	4a	le	4cc#X	le
4d	pa-	4f	pa-	4dd	pa-
=14	=14	=14	=14	=14	=14
4A	-ro-	4e	-ro-	4cc#X	-ro-
4d	-le> e'l	4d	-le	4dd	-le>
8GL	ri-	2r	.	4r	.
8A	.	.	.	.	.
8B	.	.	.	4g	e'l
8cJ	.	.	.	.	.
2A	.	2c	e'l	8aL	ri-
.	.	.	.	8b	.
.	.	.	.	8ccni	.
.	.	.	.	8aJ	.
2G	-so	4.d	ri-	4.b	.
.	.	8e	.	16aL	.
.	.	.	.	16gJ	.
=15	=15	=15	=15	=15	=15
4r	.	8f#XL	.	2a	.
.	.	8eJ	.	.	.
4d	E	4f#X	.	.	.
4G	l'al-	2g	-so	4b	-so
4G	-tre	.	.	4dd	E
2g	gra-	4r	.	4dd	l'al-
.	.	4b	E	4dd	-tre
2e	-tie, A-	4b	l'al-	2gg	gra-
.	.	4b	-tre	.	.
=16	=16	=16	=16	=16	=16
4c	-mor,	2cc	gra-	1ee	-tie, A-
4A	E	.	.	.	.
2c	l'al-	2g	-tie, A-	.	.
4A	-tre,	4a	-mor,	4cc#X	-mor,>
4d	E	4f#X	E	4dd	E
4G	l'al-	4g	l'al-	4b	l'al-
4G	-tre	4b	-tre	4g	-tre
=17	=17	=17	=17	=17	=17
2G	gra-	2.b	gra-	2dd	gra-
2g	-tie, A-	.	.	2dd	-tie, A-
.	.	8aL	.	.	.
.	.	8bJ	.	.	.
4e	-mor	4cc	.	2gg	-mor,
4g	del	2b	-tie, A-	.	.
4.e	lie-	.	.	4r	.
.	.	[4cc	-mor,	4gg	del
8d	.	.	.	.	.
=18	=18	=18	=18	=18	=18
2.c	.	4cc]	.	4.ee	lie-
.	.	8bL	.	.	.
.	.	8aJ	.	8dd	.
.	.	4g	.	8ccL	.
.	.	.	.	8b	.
4d	-to	4f#X	del	8a	.
.	.	.	.	16g	.
.	.	.	.	16aJ	.
8GL	vi-	4g	lie-	8bL	.
8A	.	.	.	8cc#iJ	.
8B	.	4g	-to	2dd	.
16A	.	.	.	.	.
16GJ	.	.	.	.	.
2A	.	4.e	vi-	.	.
.	.	.	.	4cc#X	-to
.	.	16dL	.	.	.
.	.	16eJ	.	.	.
=19	=19	=19	=19	=19	=19
1d	-so,	4f#X	.	4.dd	vi-
.	.	2g	.	.	.
.	.	.	.	16ccniL	.
.	.	.	.	16bJ	.
.	.	.	.	8aL	.
.	.	.	.	8gJ	.
.	.	4f#X	.	4a	.
4r	.	2g	-so,	1b	-so,
4G	Di	.	.	.	.
4.g	cui	4r	.	.	.
.	.	4e	Di	.	.
8g	pi&ugrave;	.	.	.	.
=20	=20	=20	=20	=20	=20
4.e	m'in-	4.g	cui	4r	.
.	.	.	.	4b	Di
8e	-va-	8g	pi&ugrave;	.	.
4d	-gi-	4f#X	m'in-	4.dd	cui
4B	-sci o-	4g	-va-	.	.
.	.	.	.	8dd	pi&ugrave;
4c	-ve	4.e	-gi-	4cc	m'in-
4A	pi&ugrave;	.	.	4cc	-va-
.	.	8fni	.	.	.
8GL	m'ar-	4g	.	4b	-gi-
8A	.	.	.	.	.
8B	.	4g	-sci o-	4dd	-sci o-
8GJ	.	.	.	.	.
=21	=21	=21	=21	=21	=21
2A	.	4e	-ve	4dd	-ve
.	.	4a	pi&ugrave;	4cc#X	pi&ugrave;
2d	-di,	4.f	m'ar-	2.dd	m'ar-
.	.	8e	.	.	.
1r	.	8fL	.	.	.
.	.	8gJ	.	.	.
.	.	4.a	.	8cc#iL	.
.	.	.	.	8bJ	.
.	.	.	.	4cc#X	.
.	.	8gL	.	.	.
.	.	8f	.	[4dd	.
.	.	16e	.	.	.
.	.	16dJ	.	.	.
=22	=22	=22	=22	=22	=22
2A	Tan-	2e	.	4dd]	.
.	.	.	.	4cc#X	.
2d	-to,	2f#X	-di,	2dd	-di,
2g	Tan-	1r	.	2r	.
2e	-to	.	.	2gg	Tan-
=23	=23	=23	=23	=23	=23
2c	sol	2g	Tan-	2ee	-to
4A	que-	4a	-to	4cc#X	sol
4B	-sto	2d	sol	2dd	que-
2G	mon-	.	.	.	.
.	.	4.g	que-	4b	-sto
2d	-do a-	.	.	2a	mon-
.	.	8f#X	-sto	.	.
.	.	4f#i	mon-	.	.
=24	=24	=24	=24	=24	=24
4.G	-ma-	4g	-do a-	4b	-do a-
.	.	2d	-ma-	2g	-ma-
8A	.	.	.	.	.
4B	.	.	.	.	.
4A	-ro e	4c	-ro e	4f#X	-ro e
2G	vi-	2e	vi-	2g	vi-
2G	-le,	2d	-le,	2g	-le
=25	=25	=25	=25	=25	=25
4d	a-	4f#X	a-	1r	.
2B	-ma-	2g	-ma-	.	.
4c	-ro e	4e	-ro e	.	.
2A	vi-	2f#X	vi-	2r	.
2G	-le	2g	-le	4r	.
.	.	.	.	8b	Mi
.	.	.	.	8cc	par
=26	=26	=26	=26	=26	=26
2r	.	4r	.	4dd	va-
.	.	8fni	Mi	8dd	-go e
.	.	8a	par	8cc	gen-
4r	.	4.g	va-	2b	-ti-
8B	Mi	.	.	.	.
8c	par	16fL	.	.	.
.	.	16eJ	.	.	.
4d	va-	4f	.	4a	-le,
8c	-go e	4.cc	-go e	8ee	<Mi
8d	gen-	.	.	8ff	par
2e	-ti-	.	.	4gg	va-
.	.	8b	gen-	.	.
.	.	4b	-ti-	8gg	-go e
.	.	.	.	8ff	gen-
=27	=27	=27	=27	=27	=27
4A	-le,	4cc	-le,	2ee	-ti-
8e	<Mi	8g	<Mi	.	.
8f	par	8a	par	.	.
4g	va-	4b	va-	2dd	-le,>
8g	-go e	8b	-go e	.	.
8f	gen-	8a	gen-	.	.
2e	-ti-	4cc	-ti-	4r	.
.	.	4g	-le,>	8b	Mi
.	.	.	.	8cc	par
2d	-le,>	4r	.	4dd	va-
.	.	8f	Mi	8dd	-go e
.	.	8a	par	8cc	gen-
=28	=28	=28	=28	=28	=28
4r	.	4.g	va-	4.b	-ti-
8G	Mi	.	.	.	.
8A	par	16fL	.	8cc	.
.	.	16eJ	.	.	.
4B	va-	4d	.	4.dd	.
8B	-go e	8d	-go e	.	.
8c	gen-	8e	gen-	16ccL	.
.	.	.	.	16bJ	.
1d	-ti-	4f#X	-ti-	4a	.
.	.	2g	.	4g	.
.	.	.	.	2a	.
.	.	4f#X	.	.	.
=29	=29	=29	=29	=29	=29
!!LO:MD:P=C0&colon;p20
0Gl	-le.	0gl	-le.	0gl	-le.
==	==	==	==	==	==
*-	*-	*-	*-	*-	*-
!!!system-decoration: [*]
!!!RDF**kern: i = editorial accidental
!!!RDF**kern: l = terminal long
!!!ENC: Emiliano Ricciardi
!!!END: 2013
!!!EED: Ricciardi, Emiliano
!!!EEV: 2017/02/08
!!!YEC: Copyright 2016 Emiliano Ricciardi, All Rights Reserved
!!!ONB: Translated from MusicXML on 2015/12/28 and edited by Craig Stuart Sapp
!!@@BEGIN:	VERSEDATA
!!@SOLERTI:	267
!!@CATALOGNUM:	Trm0267
!!@LAST_MODIFIED: 2020/07/12
!!@TITLE:		Bella non è costei
!!@GENRE:		madrigale
!!@MANUSRC:	E<sub>1</sub>, F<sub>2</sub>, V<sub>13/E1</sub>, VE<sub>3</sub>
!!@PRINTSRC:	28, 49, 169
!!@@BEGIN:	VERSES
!!@ABOUTIT:
!!@ABOUTEN:
!!@EDITOR:	Solerti, Angelo
!!@EDITION_TITLE: Le Rime di Torquato Tasso
!!@EDITION_LOC:	Bologna
!!@EDITION_PUB:	Romagnoli-Dall’Acqua
!!@EDITION_DATE:  1898-1902
!!@EDITION_VOL:	2
!!@EDITION_PAGE:  267
!!@TRANSLATOR:	Emiliano Ricciardi and Amyrose McCue Gill
!!@VERSE:
!!	Bella non è costei
!!	Ma la beltade istessa,
!!	Perché fa bello ciò ch'a lei s'appressa:
!!	E quanto ella comparte i dolci sguardi,
!!	E le parole e 'l riso
!!	E l'altre grazie, Amor, del lieto viso,
!!	Di cui più m'invaghisci ove più m'ardi,
!!	Tanto sol questo mondo amaro e vile
!!	Mi par grato e gentile.
!!@TVERSE:
!!	Beautiful she is not
!!	But beauty itself,
!!	Because she makes beautiful all that comes near her:
!!	And however much she shares her sweet gazes,
!!	And her words and her smile
!!	And her other graces, Love, with a happy face,
!!	With which the more you make me fond the more you burn me,
!!	Only that much does this bitter and mean world
!!	Seem to me welcoming and kind.
!!@@END:		VERSES
!!@OTHER_CRIT_ED:   None
!!@ATTRIBUTION_ABOUT:	Secure
!!		<br>
!!		Among other sources (see Literary Sources), this poem appears in the authoritative manuscript It. 385, Biblioteca Estense Universitaria, Modena.
!!@DATING:	Mid-1580s or earlier
!!@DEDICATEE:
!!@COMMENTARY:
!!@@END:		VERSEDATA
!!@@BEGIN:	SETTING
!!@CATALOGNUM:	Trm0267a
!!@RIMETITLE:	Bella non è costei
!!@SOLERTI:	267
!!@COMPOSER:	Zenaro, Giulio
!!@PRINCEPSTITLE:	Il primo libro de madrigali a tre voci
!!@PRINCEPSLOC:	Venetia
!!@NORMLOC:	Venice
!!@NORMPUB:	Vincenzi & Amadino
!!@NORMPUBSHORT:	Vincenzi & Amadino
!!@PRINCEPSPUB:	Vincenzi
!!@PRINCEPSYEAR:	1589
!!@PRINCEPSRISM:	Z 160
!!@REPRINTS:	
!!@OVOICES:	3
!!@EXTANTVOICES:	3
!!@PARTBOOKS:	
!!@EXTPARTBOOKS:	
!!@OCLEFS:	G2,C2,C3
!!@OMENSURATION:	C
!!@OKEYSIG:	-
!!@FINAL:	G
!!@TIMPEDITOR:	Ricciardi, Emiliano
!!@NOTE:		
!!@@END:		SETTING
